X:1
T:Si con sua Cetr'Orpheo
T:Source: Trium vocum cantiones---Nürnberg---J.Petreius---1541. Editor : André Vierendeels (15/04/16).
T:Notes : Original clefs :C3, C4, F4 Editorial accidentals above the staff Original nopte values have been halved
T:Si con sua Cetr'Orpheo  I                                     Jhan Gero
T:©
T:©
T:©
C:Jhan Gero
Z:©
%%score [ 1 2 3 ]
L:1/8
Q:1/4=85
M:2/2
K:F
V:1 treble-8 nm="Tenor 1" snm="T 1"
V:2 treble-8 nm="Tenor 2" snm="T 2"
V:3 bass nm="Bass" snm="B"
V:1
 z8 | z4 A4 | c2 c2 d2 e2 | f4 f3 e | d2 c2 d2 f2 | e2 d4 c2 | d8 | f4 e2 c2 | d2 e2 f4 | %9
w: |Si|con sua Ce- tr'Or-|phe- o mul-|ci Plu- to- *||ne,|in ren- der|gli l'a- ma-|
 c2 e2 f2 g2- | gf f4 e2 | f8 | z2 f2 e2 d2 | c2 B2 A4 | A2 f2 e2 d2 | c2 B2 A4 | A2 c4 d2 | %17
w: * ta, l'a- ma-||ta,|et l'al- tro|con gran cu-|ra, et l'al- tro|con gran cu-|ra, con gtan|
 e2 c2 z4 | d4 d4- | d2 c2 f2 d2 | c2 f2 e2 c2 | d3 c B4 | A8 | c4 c2 c2 | d4 e4 | c2 c2 f4- | %26
w: cu- ra,|can- tan-|* do fe- ce|le The- ba- ne|mu- * *|ra,|con un su-|a- ve|ba- so fa|
 f2 e2 d4 | c4 A4 | B4 G4 | A2 f2 d2 f2 | e2 d3 c/B/ c2 | d4 A4 | B4 G4 | A2 f2 d2 f2 | %34
w: _ mia di-|va, l'al-|ma mo-|rir et quel- la|tor- nar _ _ vi-|va, l'al-|ma mo-|rir et quel- la|
 e2 d3 c/B/ c2 | d8 |] %36
w: tor- nar _ _ vi-|va.|
V:2
 z8 | z8 | z8 | D4 F2 F2 | G2 A2 B2 A2 | G3 F E4 | D6 B2 | A2 F2 G2 A2 | B4 F2 A2 | G2 c2 B2 G2 | %10
w: |||Si con sua|Ce- tr'Or- pheo mul-|ci Plu- to-|ne, in|ren- der gli l'a-|ma- * *|ta, in ren- der|
 A2 A2 G4 | F2 c2 B2 A2 | G2 F2 G4 | A4 D4 | C2 F2 G2 G2 | A4 F4 | z2 A2 A2 F2 | c2 A2 G2 c2 | %18
w: gli l'a- ma-|ta, et l'al- tro|con gran cu-|ra, et|l'al- tro con gran|cu- ra,|can- tan- do|fe- ce le The-|
 B2 A4 G2 | A2 A2 F2 G2 | A2 F2 G2 A2 | G2 F4 E2 | F8 | A4 A2 A2 | F4 G4 | A2 A2 D4- | D2 E2 F4 | %27
w: ba- ne mu-|ra, can tan- do|fe- ce le The-|ba- ne mu-|ra,|con un su-|a- ve|ba- so fa|_ mia di-|
 E4 F4 | G2 F4 E2 | F2 A2 F2 A2 | G2 F2 E4 | D4 F4 | G2 F4 E2 | F2 A2 F2 A2 | G2 F2 E4 | D8 |] %36
w: va, l'al-|ma mo- *|rir et quel- la|tor- nar _|vi _|va, et quel-|a tor- nar vi-||va.|
V:3
"^#" A,,4 C,2 C,2 | D,2 E,2 F,4 | F,3 E, D,2 C,2 | D,2 F,3 E,D,C, | B,,2 A,,2 G,,2 F,,2 | %5
w: Si con sua|Ce' tr'Or- phe-|o mul- ci Plu-|to- * * * *||
 G,,4 A,,4 | D,3 E, F,2 B,,2 | D,4 C,4 | z4 F,4 | E,2 C,2 D,2 E,2 | F,4 C,4 | F,,4 z2 F,2 | %12
w: |ne, _ _ Plu-|to- ne,|in|ren- der gli l'a-|ma- *|ta, et|
 E,2 D,2 C,2 B,,2 | A,,2 A,,2 F,4 | E,2 D,2 C,2 B,,2 | A,,2 A,,2 D,4 | D,2 C,2 F,2 D,2 | %17
w: l'al- tro con gran|cu- ra, et|l'al- tro con gran|cu- ra, can-|tan- do fe- ce|
 C,2 F,2 E,2 C,2 | D,3 C, B,,4 | A,,2 A,,2 D,2 B,,2 | A,,2 D,2 C,2 A,,2 | B,,3 A,, G,,4 | F,,8 | %23
w: le The- ba- ne|mu- * *|ra, can- tan- do|le The- ba- ne|mu- * *|ra,|
 F,4 F,2 F,2 | D,4 C,4 |"^#""^#" F,2 F,2 B,,4- | B,,2 C,2 D,4 | A,,4 F,,4 | B,,4 C,4 | %29
w: con un so-|a- ve|ba- so fa|_ mia di-|va, l'al-|ma mo-|
 F,,2 F,,2 B,,2 F,,2 |"^#""^#" G,,2 G,,2 A,,4 | D,4 D,4 | B,,4 C,4 | F,,2 F,,2 B,,2 F,,2 | %34
w: rir, l'al- ma mo-|rir et quel-|la tor-|nar vi-|va, et quel- la|
 C,2 D,2 A,,4 | D,8 |] %36
w: tor- nar vi-|va.|

